svgs/duotone/clapperboard-play.svg

<svg xmlns="http://www.w3.org/2000/svg" viewBox="0 0 512 512"><!--! Font Awesome Pro 6.3.0 by @fontawesome - https://fontawesome.com License - https://fontawesome.com/license (Commercial License) Copyright 2023 Fonticons, Inc. --><defs><style>.fa-secondary{opacity:.4}</style></defs><path class="fa-primary" d="M201.9 32l-128 128h92.13l128-128H201.9zM64 32C28.65 32 0 60.65 0 96v64h6.062l128-128H64zM326.1 160l127.4-127.4C451.7 32.39 449.9 32 448 32h-86.06l-128 128H326.1zM497.7 56.19L393.9 160H512V96C512 80.87 506.5 67.15 497.7 56.19zM224.3 241.7C221.1 239.5 216.9 239.5 213.5 241.4C210.1 243.3 208 247 208 251v137.9c0 4.008 2.104 7.705 5.5 9.656C215.1 399.5 216.9 400 218.7 400c1.959 0 3.938-.5605 5.646-1.682l106.7-68.97C334.1 327.3 336 323.8 336 319.1s-1.896-7.34-5.021-9.354L224.3 241.7z"/><path class="fa-secondary" d="M0 160v256c0 35.35 28.65 64 64 64h384c35.35 0 64-28.65 64-64V160H0zM330.1 329.3l-106.7 68.97C222.6 399.4 220.6 400 218.7 400c-1.77 0-3.562-.4648-5.166-1.379C210.1 396.7 208 392.1 208 388.1V251c0-4.01 2.104-7.705 5.5-9.656c3.375-1.918 7.562-1.832 10.81 .3027l106.7 68.97C334.1 312.7 336 316.2 336 319.1S334.1 327.3 330.1 329.3z"/></svg>

<svg xmlns="http://www.w3.org/2000/svg" viewBox="0 0 512 512"><!-- Font Awesome Pro 6.0.0-alpha2 by @fontawesome - https://fontawesome.com License - https://fontawesome.com/license (Commercial License) --><defs><style>.fa-secondary{opacity:.4}</style></defs><path d="M0 160V416C0 451.346 28.654 480 64 480H448C483.346 480 512 451.346 512 416V160H0ZM330.979 329.35L224.312 398.318C222.604 399.439 220.625 400 218.666 400C216.896 400 215.104 399.535 213.5 398.621C210.104 396.67 208 392.973 208 388.965V251.027C208 247.018 210.104 243.322 213.5 241.371C216.875 239.453 221.062 239.539 224.312 241.674L330.979 310.643C334.104 312.656 336 316.191 336 319.996S334.104 327.334 330.979 329.35Z" class="fa-secondary"/><path d="M201.938 32L73.938 160H166.062L294.062 32H201.938ZM64 32C28.654 32 0 60.654 0 96V160H6.062L134.062 32H64ZM326.062 160L453.508 32.555C451.662 32.395 449.887 32 448 32H361.938L233.938 160H326.062ZM497.748 56.189L393.938 160H512V96C512 80.867 506.529 67.146 497.748 56.189ZM224.312 241.674C221.062 239.539 216.875 239.453 213.5 241.371C210.104 243.322 208 247.018 208 251.027V388.965C208 392.973 210.104 396.67 213.5 398.621C215.104 399.535 216.896 400 218.666 400C220.625 400 222.604 399.439 224.312 398.318L330.979 329.35C334.104 327.334 336 323.801 336 319.996S334.104 312.656 330.979 310.643L224.312 241.674Z" class="fa-primary"/></svg>
